X: 1
T: The Rainy Day
M: 4/4
L: 1/8
R: reel
S: Based on Bothy Band tune, but a couple of tweaks here and there to add much-needed strength to my argument 
K: Ador
EAAG ~A3B|cded gedc|BGGF ~G2dG|~G2dG eGdG|
EAAG ~A3B|cBAB cdef|~g3e dBGA|1 B2dB A3G:|2 B2dB A3d||
|:eaag ~a3g|ba~a2 bgag|eggf ~g3a|bg~g2 bgag|
eaag aged|(3Bcd ef g2ag|eaag egdG|1 B2dB A3d:|2 B2dB A3G||
